teeny/solid/adjust-vertical.svg

<svg viewBox="0 0 15 15" xmlns="http://www.w3.org/2000/svg"><g><path d="M2 0l0 6H-.01v3h2v6h1V9h2V6h-2l-.01-6h-1Z"/><path d="M5 10h2V0h1v10h2v3H8v2H7v-2H5v-3Z"/><path d="M12 0v2h-2v3h2v10h1V5h2V2h-2V0h-1Z"/></g></svg>

<svg width="15" height="15" viewBox="0 0 15 15" fill="none" xmlns="http://www.w3.org/2000/svg">
<path d="M2 0L2.00001 6H0V9H2V15H3V9H5V6H3.00001L3 0H2Z" fill="black"/>
<path d="M5 10H7V0H8V10H10V13H8V15H7V13H5V10Z" fill="black"/>
<path d="M12 0V2H10V5H12V15H13V5H15V2H13V0H12Z" fill="black"/>
</svg>
